!!!!SEGMENT: Fss3010-Sel_pensier_che_mi_strugge.krn
!!!id: Fss3010
!!!AGN: Frottola
!!!voices: 4
!!!COM: Sebastiano Festa
!!!OTL: Se'l pensier che mi strugge
**kern	**kern	**kern	**kern
*part4	*part3	*part2	*part1
*staff4	*staff3	*staff2	*staff1
*I"Bassus	*I"Tenor	*I"Altus	*I"Superius
*I'B	*I'T	*I'A	*I'S
*clefF4	*clefGv2	*clefG2	*clefG2
*k[b-]	*k[b-]	*k[b-]	*k[b-]
*F:	*F:	*F:	*F:
*M2/1	*M2/1	*M2/1	*M2/1
*met(C|)	*met(C|)	*met(C|)	*met(C|)
=1	=1	=1	=1
0B-y	0d	0f	0b-y
=2	=2	=2	=2
1F	1c	1f	1a
2G	2B-y	2d	2g
2C	[2c	[2e	[2g
=3	=3	=3	=3
1E	4c]	2e]	2g]
.	4B-y	.	.
.	4A	2c	4f
.	4G	.	4e
1D	2A	1d	2f
.	2A	.	2g
=4	=4	=4	=4
1d	1G	4B-y	1g
.	.	4A	.
.	.	4B-y	.
.	.	4c	.
2r	1G	1d	1g
[2B-y	.	.	.
=5	=5	=5	=5
4B-]	1d	2r	1f
4A	.	.	.
4G	.	2B-y	.
4F	.	.	.
1E-X	2.e-X	1B-y	1g
.	4d	.	.
=6	=6	=6	=6
2F	2c	4f	2a
.	.	4e	.
2G	2B-y	4d	1b-y
.	.	4e	.
1F	2c	2f	.
.	2c	2f	2a
=7	=7	=7	=7
1BB-y	1B-y	1d	1b-y
1BB-y	1B-y	1d	1b-y
=8	=8	=8	=8
2r	2r	2r	2r
2F	2c	2f	2a
2F	2c	2f	2a
2B-y	2d	2f	2b-y
=9	=9	=9	=9
2F	2c	2f	2a
2G	2B-y	2d	2g
1D	1A	[1d	1f
=10	=10	=10	=10
1G	1B-y	1d]	1g
[1C	1c	4c	2e
.	.	4d	.
.	.	4e	4c
.	.	4f	4d
=11	=11	=11	=11
1C]	2c	2g	4e
.	.	.	4f
.	2B-y	2e	1g
1D	1A	1d	.
.	.	.	2f#i
=12	=12	=12	=12
1d	1G	1B-y	1g
1d	1G	1B-y	1g
=13	=13	=13	=13
0B-y	0d	0f	0b-y
=14	=14	=14	=14
1F	1c	1f	1a
2G	2B-y	2d	2g
2C	[2c	[2e	[2g
=15	=15	=15	=15
1E	4c]	2e]	2g]
.	4B-y	.	.
.	4A	2c	4f
.	4G	.	4e
1D	2A	1d	2f
.	2A	.	2g
=16	=16	=16	=16
1d	1G	4B-y	1g
.	.	4A	.
.	.	4B-y	.
.	.	4c	.
2r	1G	1d	1g
[2B-y	.	.	.
=17	=17	=17	=17
4B-]	1d	2r	1f
4A	.	.	.
4G	.	2B-y	.
4F	.	.	.
1E-X	2.e-X	1B-y	1g
.	4d	.	.
=18	=18	=18	=18
2F	2c	4f	2a
.	.	4e	.
2G	2B-y	4d	1b-y
.	.	4e	.
1F	2c	2f	.
.	2c	2f	2a
=19	=19	=19	=19
1BB-y	1B-y	1d	1b-y
1BB-y	1B-y	1d	1b-y
=20	=20	=20	=20
2r	2r	2r	2r
2F	2c	2f	2a
2F	2c	2f	2a
2B-y	2d	2f	2b-y
=21	=21	=21	=21
2F	2c	2f	2a
2G	2B-y	2d	2g
1D	1A	[1d	1f
=22	=22	=22	=22
1G	1B-y	1d]	1g
[1C	1c	4c	2e
.	.	4d	.
.	.	4e	4c
.	.	4f	4d
=23	=23	=23	=23
1C]	2c	2g	4e
.	.	.	4f
.	2B-y	2e	1g
1D	1A	1d	.
.	.	.	2f#i
=24	=24	=24	=24
1d	1G	1B-y	1g
1d	1G	1B-y	1g
=25	=25	=25	=25
2r	2r	2r	2r
2G	2B-y	2d	2g
2.F	2.c	2.f	2.a
4G	4B-y	4e	4g
=26	=26	=26	=26
2D	2A	2d	2f
2D	2A	2d	2f
2G	2G	2d	2g
2G	2G	2d	2g
=27	=27	=27	=27
0F	0A	0f	0cc
=28	=28	=28	=28
2G	2G	2d	2b-y
2F	2A	2d	2a
2E-X	2B-y	2G	2g
2E-i	2c	2G	2g
=29	=29	=29	=29
2D	2d	2A	2f
2D	2d	2A	2f
2r	2r	2r	2r
2BB-y	2d	2f	2b-y
=30	=30	=30	=30
2F	2c	2f	2a
2G	2B-y	2e	2b-y
2F	2c	2f	2b-y
2F	2c	2f	2a
=31	=31	=31	=31
2BB-y	2B-y	2d	2b-y
2BB-y	2B-y	2d	2b-y
2r	2r	2r	2r
2BB-y	2d	2f	2b-y
=32	=32	=32	=32
2F	2c	2f	2a
2G	2B-y	2e	2b-y
2F	2c	2f	2b-y
2F	2c	2f	2a
=33	=33	=33	=33
2BB-y	2B-y	2d	2b-y
2BB-y	2B-y	2d	2b-y
2r	2r	2r	2r
2F	2c	2f	2a
=34	=34	=34	=34
2.F	2.c	2.f	2.a
4G	4B-y	4e	4g
2F	2c	2f	2a
2F	2c	2f	2a
=35	=35	=35	=35
2BB-y	4d	2f	4b-y
.	4c	.	4a
2BB-y	4B-y	2d	4g
.	4A	.	4f
2C	2G	2c	2e
2D	2F	2B-y	2f
=36	=36	=36	=36
1C	2G	1c	2f
.	2G	.	2e
1c	2F	1A	2f
.	2F	.	2f
=37	=37	=37	=37
0r	2r	0r	2r
.	2c	.	2a
.	2.d	.	2.b-y
.	4c	.	4a
=38	=38	=38	=38
2r	2B-y	2r	2g
2c	2A	2a	2f
2.d	2G	2.b-y	2g
.	2G	.	2g
4c	.	4a	.
=39	=39	=39	=39
2B-y	2r	2g	2r
2A	2c	2f	2a
2G	2.d	2g	2.b-y
2G	.	2g	.
.	4c	.	4a
=40	=40	=40	=40
2r	2B-y	2r	2g
2c	2A	2a	2f
2.d	2G	2.b-y	2g
.	2G	.	2g
4c	.	4a	.
=41	=41	=41	=41
2B-y	0r	2g	0r
2A	.	2f	.
2G	.	2g	.
2G	.	2g	.
=42	=42	=42	=42
2r	2r	2r	2r
2D	2d	2a	2f
2D	2d	2a	2f
[2D	2d	2a	2f
=43	=43	=43	=43
2D]	2A	2.d	2f
2G	2B-y	.	2g
.	.	4e	.
2F	2c	2f	2a
2F	2c	2f	2a
=44	=44	=44	=44
1G	1B-y	2r	1d
.	.	2g	.
1C	2.c	2g	4e
.	.	.	4f
.	.	2e	2g
.	4B-y	.	.
=45	=45	=45	=45
2D	2A	2d	2f
2E	2G	2c	1g
1D	2A	1d	.
.	2A	.	2f#i
=46	=46	=46	=46
2G	2G	1B-y	2g
2G	2G	.	2g
2r	2r	2r	2r
2D	2A	2d	2f
=47	=47	=47	=47
2D	2A	2d	2f
1D	2A	2d	2f
.	2B-y	2.d	2f
2G	2B-y	.	2g
.	.	4e	.
=48	=48	=48	=48
2F	2c	2f	2a
2F	2c	2f	2a
1G	1B-y	2r	1d
.	.	2g	.
=49	=49	=49	=49
1C	2.c	2g	4e
.	.	.	4f
.	.	2e	2g
.	4B-y	.	.
2D	2A	2d	2f
2E	2G	2c	[2g
=50	=50	=50	=50
1D	2A	1d	2g]
.	2A	.	2f#i
2d	2G	1B-y	2g
2d	2G	.	2g
=51	=51	=51	=51
0B-y	0b-y	0f	0dd
=52	=52	=52	=52
2F	2a	2f	2cc
2F	2a	2f	2cc
2G	2g	2d	2b-y
2C	2e	2e	2cc
=53	=53	=53	=53
1D	4f	1d	1a
.	2g	.	.
.	4f	.	.
[1E-X	[1g	1B-y	[1gl
=54	=54	=54	=54
2E-]	2g]	1B-y	0g_
2D	2f	.	.
2C	2e	2c	.
2BB-y	2d	2d	.
=55	=55	=55	=55
1C	2e	2c	0g_
.	2e	2c	.
[1C	[1e	[1c	.
=56	=56	=56	=56
1C]	1e]	1c]	0g_
[1Gl	[1dl	[1B-yl	.
=57	=57	=57	=57
00G]	00d]	00B-]	00g]
==	==	==	==
*-	*-	*-	*-
!!!system-decoration: [*]
!!!RDF**kern: i = editorial accidental
!!!RDF**kern: l = terminal long
!!!ENC: Benjamin Ory
!!!END: 2024/10/28
!!!EED: Benjamin Ory
!!!EEV: 2024/10/28
!!!YEC: Copyright 2024 Benjamin Ory, All Rights Reserved
!!!ONB: Translated from MusicXML on 2024/10/28